!!!!SEGMENT: pl-wtm--r-730-10-m_moniuszko-stanislaw--kochac-spiesz-dziewczyno.krn
!!!cenid: 18xx:1690
!!!COM: Moniuszko, Stanisław
!!!COM-rismid: pe30008351
!!!CDT: 1819/05/05-1872/06/04
!!!CNT: Polish
!!!OTL: Kochać śpiesz dziewczyno
!!!PDT:
!!!AGN: Secular
!!!SMS-siglum: PL-Wtm
!!!SMS-shelfmark: R 730/10/M
!!!SMS-shelfwork: W
!!!SMS-variant:
!!!SMS-altvar:
!!!NIFC-rismid: 1001099784
!!!URL-scan: http://repozytorium.nifc.pl/skany/pl-wtm-nut--r730m-1-43
!!!ONB-nifc: Skan 0017. No. 762
**kern	**kern	**kern	**text	**text
*part2	*part2	*part1	*part1	*part1
*staff3	*staff2	*staff1	*staff1	*staff1
*I"[Fortepian]	*	*I"[Głos]	*	*
*I'pf	*	*I'V	*	*
*clefF4	*clefG2	*clefG2	*	*
*k[f#c#g#]	*k[f#c#g#]	*k[f#c#g#]	*	*
*M2/4	*M2/4	*M2/4	*	*
*>[A,B,B,C]	*>[A,B,B,C]	*>[A,B,B,C]	*	*
=1	=1	=1	=1	=1
*>A	*>A	*>A	*	*
8A\L	16dd#X\LL	2r	.	.
.	16ee\	.	.	.
8c#\J 8e	16ff#\	.	.	.
.	16ee\JJ	.	.	.
8E#X\L	16cc#\LL	.	.	.
.	16ddn\	.	.	.
8G#\J 8B 8d	16ee\	.	.	.
.	16dd\JJ	.	.	.
=2	=2	=2	=2	=2
8F#\L	16b#X\LL	2r	.	.
.	16cc#\	.	.	.
8A\J 8c#	16dd\	.	.	.
.	16cc#\JJ	.	.	.
8D\L	16e#X/LL	.	.	.
.	16f#/	.	.	.
8F#\J 8A 8B	16cc#/	.	.	.
.	16b#/JJ	.	.	.
=3	=3	=3	=3	=3
8E\L	16b/LL	2r	.	.
.	16e/	.	.	.
8A\J 8c#	16e/	.	.	.
.	16e/JJ	.	.	.
8E\L	16d#X/LL	.	.	.
.	16e/	.	.	.
8B\J 8d	16f#/	.	.	.
.	16g#/JJ	.	.	.
=4	=4	=4	=4	=4
8A\L 8c#	8a/L	2r	.	.
8E\J 8A	8e/J 8cc#	.	.	.
4AA\ 4E	4c#/ 4a	.	.	.
=5!|:	=5!|:	=5!|:	=5!|:	=5!|:
*>B	*>B	*>B	*	*
8AA/	8r	8.cc#\	Ko-	Mi-
8r	8c#/ 8e 8a	.	.	.
.	.	16b#X\	-chać,	-łość
8AA/	8r	8.cc#\	Ko-	w_ǰed-
8r	8c#/ 8e 8a	.	.	.
.	.	16b#\	-chać	-ném
=6	=6	=6	=6	=6
8AA/	8r	8cc#\	spesz	ci
8A/	8c#/L 8e 8a	8a/	dzǐew-	spój-
8AA/	8d/ 8f# 8a	8dd\	-czy-	-rze-
8A/	8c#/J 8e 8a	8cc#\	-no!	-nǐu
!!LO:LB:g=original
=7	=7	=7	=7	=7
8EE/	8r	8.b/	rych-	wszyst-
8r	8B/ 8d 8g#	.	.	.
.	.	16a#X/	-ło	-kǐe
(4E\	8r	8.b/	ży-	czu-
.	8B/ 8d 8g#	.	.	.
.	.	16a#/	-cǐa	-cǐa
=8	=8	=8	=8	=8
4E#X\)	8r	8b\	mrok	wy-
.	8B/L 8d 8g#	8dd\	za-	-spo-
(4EE#X/	8B/ 8c# 8g#	8cc#\	-pa-	-wia-
.	8B/J 8c# 8g#	8b\	-da;	-da;
=9	=9	=9	=9	=9
4FF#/)	8r	8a/	w_łzach	sa-
.	8A/L 8c# 8f#	8a/	co	-ma
8F#\L	8A/ 8c# 8f#	8a/	pły-	po-
8E\J	8A/J 8cn 8f#	16b/LL	-ną	-wǐesz
.	.	16a/JJ	.	.
=10	=10	=10	=10	=10
8D#X\L	8r	8g#/	i	w_zach-
8BB\	8A/ 8B 8f#	8a/	prze-	-wy-
8D#\	8r	8cc#/	-pły-	-ce-
8BB\J	8B/ 8f# 8a	8b/	-ną,	-nǐu:
=11	=11	=11	=11	=11
8E\	8r	8g#/	ros-	ros-
8r	8B/ 8e 8g#	16a/LL	-kosz	-kosz
.	.	16b/JJ	.	.
8AA/	8r	8dd#X\	ſmut-	ſmut-
8r	8c#/ 8f# 8a	8cc#\	-ku	-ku
=12	=12	=12	=12	=12
8BB/	8r	8e/	po-	czu-
8r	8B/ 8e 8g#	16d#X/LL	-znay	-ǐę
.	.	16e/JJ	.	.
(4BB/	8r	8f#/	ra-	ra-
.	8B/ 8d#X 8f#	8f#X/	-da,	-da,
=13	=13	=13	=13	=13
8E/L)	8r	8g#/	ros-	ros-
8GG#/	8B/ 8e 8g#	16a/LL	-kosz	-kosz
.	.	16b/JJ	.	.
8AA/	8r	8dd#X\	smut-	smut-
8FF#/J	8c#/ 8f# 8a	8cc#\	-ku	-ku
!!LO:LB:g=original
=14	=14	=14	=14	=14
8BB/	8r	8e/	po-	czu-
8r	(8B/L 8e 8g#	16d#X/LL	-znay,	-ię,
.	.	16e/JJ	.	.
4BB/	8b/)	8.g#/	po-	czu-
.	8B/J 8d 8a	.	.	.
.	.	16f#/	-znay	-ię
=15	=15	=15	=15	=15
.	.	8qf#/	.	.
8E\	8r	4e/	rada!	rada!
8r	8B/ 8e 8g#	.	.	.
8EE/	8r	4r	.	.
8r	8G#/ 8B 8e	.	.	.
=16	=16	=16	=16	=16
8E\	8r	2r	.	.
8E\L 8B	8g#\L 8ee	.	.	.
.	8qb/	.	.	.
8E\ 8c#	8a\ 8ee	.	.	.
8E\J 8B	8g#\J 8ee	.	.	.
=17	=17	=17	=17	=17
8F#\ 8c#	8r	8.cc#\	Ko-	Cie-
8r	8a#X\ 8ee	.	.	.
.	.	16cc#\	-chać,	-bie
8F#\ 8c#	8r	8.cc#\	Ko-	wstrę-
8r	8a#\ 8ee	.	.	.
.	.	16cc#\	-chać	-tem
=18	=18	=18	=18	=18
8F#\ 8c#	8r	8b#X\	chcǐey	nǐech
8r	8a#X\ 8ee	8cc#\	wza-	nie
8B\	8r	8ee\	-iem-	wzru-
8r	8an\ 8dd#X	8dd#X\	-nie!	-sza
=19	=19	=19	=19	=19
8E\ 8B	8r	8.b\	ah!	Do-
8r	8g#\ 8ddn	.	.	.
.	.	16b\	gdy	-świad-
8E\ 8B	8r	8b\	du-	-czo-
8r	8g#\ 8dd	8b\	-sza	-na
=20	=20	=20	=20	=20
8E\ 8B	8r	8a#X/	du-	lu-
8r	8g#\ 8dd	8b/	-szę	-dzi
8A\	8r	8dd\	zba-	zdra-
8r	8a\ 8cc#	8cc#\	-da	-da
!!LO:PB:g=original
=21	=21	=21	=21	=21
*^	*	*	*	*
8d/	8E#X\L	16g#/LL 16b	8b/	wierż	ſer-
.	.	16g#/JJ 16b	.	.	.
4c#^</	8C#\	4g#/ 4b	8a/	mi,	-ce
.	8E#\	.	8g#/	ze	pę-
8c#/	8C#\J	8g#/ 8b	16a/LL	mną	-ka
.	.	.	16g#/JJ	.	.
=22	=22	=22	=22	=22	=22
8F#\L	8c#/	16f#/LL 16a	8f#/	i	iesz-
.	.	16f#/JJ 16a	.	.	.
8C#\	4c#/	4f#/ 4a	8g#/	prze-	-cze
8F#\	.	.	8a/	-ze	du-
8C#\J	8c#/	8f#/ 8a	8cc#/	mnie	-sza
=23	=23	=23	=23	=23	=23
8D#\L	8cn/	16f#/LL 16a	8b#X\	ros-	ros-
.	.	16f#/JJ 16a	.	.	.
8BB\	4B/	4f#/ 4a	8cc#\	-kosz	-kosz
8D#\	.	.	8a/	ſmut-	ſmut-
8BB\J	8B/	8f#/ 8a	8f#/	-ku	-ku
=24	=24	=24	=24	=24	=24
8E\	8B/	8e/L 8g#	8e/	po-	wspo-
!	!	!LO:TX:b:i:t=ritard&colon;	!LO:TX:a:i:t=ritard&colon;	!	!
4.ryy	8r	8e/ 8g#	8ee\	-znasz	-mni
.	4r	8f#/ 8a	8dd#X\	ra-	ra-
.	.	8g#/J 8b	8ddn\	-da.	-da.
*v	*v	*	*	*	*
=25:|!	=25:|!	=25:|!	=25:|!	=25:|!
*>C	*>C	*>C	*	*
8AA/	8r	8.cc#\	Ko-	.
8r	8c#/ 8e 8a	.	.	.
.	.	16b#X\	-chać	.
8AA/	8r	8.cc#\	Ko-	.
8r	8c#/ 8e 8a	.	.	.
.	.	16b#\	-chać	.
=26	=26	=26	=26	=26
*rep	*rep	*	*	*
8AA/yy	8ryy	8cc#\	spiesz	.
8ryy	8c#/yy 8e 8a	8a\	dziew-	.
8AA/yy	8ryy	16ee\LL	-czy-	.
.	.	16dd\JJ	.	.
8ryy	8c#/yy 8e 8a	8cc#\	-no!	.
*Xrep	*Xrep	*	*	*
!!LO:LB:g=original
=27	=27	=27	=27	=27
8E\	8r	8.b/	rych-	.
8r	8B/ 8d 8g#	.	.	.
.	.	16a#X/	-ło	.
8E\	8r	8.b/	ży-	.
8r	8B/ 8d 8g#	.	.	.
.	.	16a#/	-cia	.
=28	=28	=28	=28	=28
8E#X\	8r	8b\	wzrok	.
8r	8B/ 8c# 8g#	8dd\	za-	.
8E#\	8r	8cc#\	-pa-	.
8r	8c#/ 8g# 8b	8b\	-da;	.
=29	=29	=29	=29	=29
8F#\	8r	8a/	w_łzach	.
8r	8c#/ 8f# 8a	8a/	co	.
8F#\	8r	8.a/	pły-	.
8r	8c#/ 8f# 8a	.	.	.
.	.	16g#/	-ną	.
=30	=30	=30	=30	=30
8D\	8r	8f#/	i	.
8r	8d/ 8f# 8b	16g#/LL	prze-	.
.	.	16a/JJ	.	.
8BB/	8r	8cc#\	-pły-	.
8r	8d/ 8f# 8b	8b\	-ną.	.
=31	=31	=31	=31	=31
8E\	8r	8.e/	Ros-	.
8r	8c#/ 8e#X 8a	.	.	.
.	.	16e#X/	-kosz	.
8D\	8r	8f#/	smut-	.
8r	8c#/ 8e#X 8g#	8g#/	-ku	.
=32	=32	=32	=32	=32
8C#/	8r	8a/	po-	.
8r	8c#/ 8e 8a	16cc#\LL	-znay	.
.	.	16ee\JJ	.	.
8D\	8r	8gg#\	ra-	.
8r	8d/ 8f# 8b	8ff#\	-da!	.
!!LO:LB:g=original
=33	=33	=33	=33	=33
(4FFn/ 4Fn	8r	8a/	ros-	.
.	8cn/ 8e-X 8a	8a/	-kosz	.
8EE/) 8E	8r	8.a/	smut-	.
8r	8B/ 8d 8g#X	.	.	.
.	.	16g#X/	-ku	.
=34	=34	=34	=34	=34
8C#\ 8A	8r	8a/	po-	.
8r	8e/ 8a 8ee	16cc#\LL	-znasz	.
.	.	16ee\JJ	.	.
8D\	8r	8gg#\	ra-	.
8r	8f#/ 8b 8dd	8ff#\	-da!	.
=35	=35	=35	=35	=35
4E\	8r	8a/	ros-	.
.	(8e\L 8a 8cc#	16g#/LL	-kosz	.
.	.	16a/JJ	.	.
4EE/	8ee\)	8.cc#/	po-	.
.	8e\J 8g# 8dd	.	.	.
.	.	16b/	-znasz	.
=36	=36	=36	=36	=36
.	.	8qb/	.	.
8AA\L 8A	16a\LL 16cc#	4a/	rada.	.
.	16dd#X\	.	.	.
8c#\J 8e	16ff#\	.	.	.
.	16ee\JJ	.	.	.
8E#X\L	16r	4r	.	.
.	16cc#\LL	.	.	.
8B\J 8d	16ee\	.	.	.
.	16dd#\JJ	.	.	.
=37	=37	=37	=37	=37
8F#\L	16r	2r	.	.
.	16b#X\LL	.	.	.
8A\J 8c#	16dd\	.	.	.
.	16cc#\JJ	.	.	.
8D#X\L	16cc#/LL	.	.	.
.	16f#/	.	.	.
8A\J 8B	16f#/	.	.	.
.	16f#/JJ	.	.	.
=38	=38	=38	=38	=38
.	(8qg#/	.	.	.
8E\L	16f#/LL)	2r	.	.
.	16e/	.	.	.
8A\J 8c#	16a/	.	.	.
.	16cc#/JJ	.	.	.
8E\L	(16ee/LL	.	.	.
.	16dd/	.	.	.
8B\J 8d	16b/	.	.	.
.	16g#/JJ)	.	.	.
=39	=39	=39	=39	=39
8A\L 8c#	8a/L	2r	.	.
8E\J 8A	8e/J 8cc#	.	.	.
4AA\ 4E	4c#/ 4a	.	.	.
!!LO:PB:g=original
==	==	==	==	==
*-	*-	*-	*-	*-
!!!system-decoration: s1[(s2,s3)]
!!!RDF**kern: < = below
!!!RDF**kern: > = above
!!!ENC: Marta Chmielewska
!!!END: 2021-04-19
!!!ENC: Tomasz Grochalski
!!!END: 2021-03-30
